flaticon/stationery/sharpener-1.svg

<svg xmlns="http://www.w3.org/2000/svg" width="32" height="32" viewBox="0 0 24 24">
    <path d="M 12 0 C 5.285156 0 0.0195312 2.921875 0 6.65625 L 0 17.679688 C 0 20.175781 5.375 24 12 24 C 18.625 24 24 20.175781 24 17.679688 L 24 6.65625 C 23.980469 2.921875 18.714844 0 12 0 Z M 22.980469 17.679688 C 22.980469 19.445312 18.230469 22.96875 12 22.96875 C 5.769531 22.96875 1.019531 19.445312 1.019531 17.679688 L 1.019531 9.425781 C 2.867188 11.765625 7.039062 13.359375 12 13.359375 C 16.960938 13.359375 21.132812 11.765625 22.980469 9.425781 Z M 10.535156 8.070312 L 10.535156 6.207031 C 10.535156 5.199219 11.332031 4.378906 12.308594 4.378906 C 13.285156 4.378906 14.082031 5.199219 14.082031 6.207031 L 14.082031 12.222656 C 13.40625 12.292969 12.710938 12.328125 12 12.328125 C 11.503906 12.328125 11.015625 12.3125 10.535156 12.277344 L 10.535156 9.101562 L 11.488281 9.101562 L 11.488281 8.070312 Z M 15.105469 12.089844 L 15.105469 6.207031 C 15.105469 4.628906 13.851562 3.347656 12.308594 3.347656 C 10.769531 3.347656 9.515625 4.628906 9.515625 6.207031 L 9.515625 12.175781 C 9.511719 12.175781 9.507812 12.175781 9.503906 12.175781 C 4.707031 11.574219 1.019531 9.300781 1.019531 6.679688 C 1.019531 3.617188 6.050781 1.03125 12 1.03125 C 17.949219 1.03125 22.980469 3.617188 22.980469 6.679688 C 22.980469 9.191406 19.601562 11.382812 15.105469 12.089844 Z M 15.105469 12.089844"/>
    <path d="M 12 15.019531 C 10.246094 15.019531 8.816406 16.480469 8.816406 18.277344 C 8.816406 20.078125 10.246094 21.539062 12 21.539062 C 13.753906 21.539062 15.183594 20.078125 15.183594 18.277344 C 15.183594 16.480469 13.753906 15.019531 12 15.019531 Z M 12 20.507812 C 10.808594 20.507812 9.835938 19.507812 9.835938 18.277344 C 9.835938 17.050781 10.808594 16.050781 12 16.050781 C 13.191406 16.050781 14.164062 17.050781 14.164062 18.277344 C 14.164062 19.507812 13.191406 20.507812 12 20.507812 Z M 12 20.507812"/>
</svg>

<svg xmlns="http://www.w3.org/2000/svg" width="32" height="32" viewBox="0 0 24 24">
    <path d="M12 0C5.285 0 .02 2.922 0 6.656V17.68C0 20.176 5.375 24 12 24s12-3.824 12-6.32V6.656C23.98 2.922 18.715 0 12 0zm10.98 17.68c0 1.765-4.75 5.289-10.98 5.289s-10.98-3.524-10.98-5.29V9.427c1.847 2.34 6.02 3.933 10.98 3.933 4.96 0 9.133-1.593 10.98-3.933zM10.535 8.07V6.207c0-1.008.797-1.828 1.774-1.828.976 0 1.773.82 1.773 1.828v6.016a20.13 20.13 0 0 1-2.082.105c-.496 0-.984-.015-1.465-.05V9.101h.953V8.07zm4.57 4.02V6.207c0-1.578-1.253-2.86-2.796-2.86-1.54 0-2.793 1.282-2.793 2.86v5.969h-.012C4.707 11.574 1.02 9.3 1.02 6.68 1.02 3.617 6.05 1.03 12 1.03S22.98 3.617 22.98 6.68c0 2.511-3.378 4.703-7.875 5.41zm0 0"/>
    <path d="M12 15.02c-1.754 0-3.184 1.46-3.184 3.257 0 1.801 1.43 3.262 3.184 3.262 1.754 0 3.184-1.46 3.184-3.262 0-1.797-1.43-3.257-3.184-3.257zm0 5.488c-1.191 0-2.164-1-2.164-2.23 0-1.227.973-2.227 2.164-2.227 1.191 0 2.164 1 2.164 2.226 0 1.23-.973 2.23-2.164 2.23zm0 0"/>
</svg>
